X:107
T:R\'il an Spiddal
R:reel
C:Charlie Lennon
Z:id:hn-reel-107
M:C|
K:D
AF~F2 dFAF | ABdf eB~B2 | AF~F2 dFAF | E2CD EFGB |
AF~F2 dFAF | ABdf eB~B2 | ~g3e fga2 | ABde fdd2 :|
|: fa~a2 bfaf | dfaf geeg | f2df aba2 | ABde fd~d2 |
fa~a2 bfaf | dfaf geef | gfgb af~f2 | efaf edd2 :|
P:variations
|: AF~F2 dFBF | ABdf eB~B2 | AF~F2 dFAF | E2CD EFGB |
AF~F2 dFBF | ABdf eB~B2 | ~g3e fa~a2 |1 ABde fddB :|2 ABde fdde ||
|: f2df afde | fgaf geeg | f2df abaf | ABde fdde |
f2df afde | fgaf geef | ~g3b af~f2 |1 efaf edde :|2 efaf eddB ||

